svg/media/skip_previous_fill.svg

<?xml version="1.0" encoding="UTF-8"?>
<svg width="24px" height="24px" viewBox="0 0 24 24" version="1.1" xmlns="http://www.w3.org/2000/svg" xmlns:xlink="http://www.w3.org/1999/xlink">
    <title>skip_previous_fill</title>
    <g id="页面-1" stroke="none" stroke-width="1" fill="none" fill-rule="evenodd">
        <g id="Media" transform="translate(-1152.000000, -48.000000)" fill-rule="nonzero">
            <g id="skip_previous_fill" transform="translate(1152.000000, 48.000000)">
                 <path d="M24,0 L24,24 L0,24 L0,0 L24,0 Z M12.5934901,23.257841 L12.5819402,23.2595131 L12.5108777,23.2950439 L12.4918791,23.2987469 L12.4918791,23.2987469 L12.4767152,23.2950439 L12.4056548,23.2595131 C12.3958229,23.2563662 12.3870493,23.2590235 12.3821421,23.2649074 L12.3780323,23.275831 L12.360941,23.7031097 L12.3658947,23.7234994 L12.3769048,23.7357139 L12.4804777,23.8096931 L12.4953491,23.8136134 L12.4953491,23.8136134 L12.5071152,23.8096931 L12.6106902,23.7357139 L12.6232938,23.7196733 L12.6232938,23.7196733 L12.6266527,23.7031097 L12.609561,23.275831 C12.6075724,23.2657013 12.6010112,23.2592993 12.5934901,23.257841 L12.5934901,23.257841 Z M12.8583906,23.1452862 L12.8445485,23.1473072 L12.6598443,23.2396597 L12.6498822,23.2499052 L12.6498822,23.2499052 L12.6471943,23.2611114 L12.6650943,23.6906389 L12.6699349,23.7034178 L12.6699349,23.7034178 L12.678386,23.7104931 L12.8793402,23.8032389 C12.8914285,23.8068999 12.9022333,23.8029875 12.9078286,23.7952264 L12.9118235,23.7811639 L12.8776777,23.1665331 C12.8752882,23.1545897 12.8674102,23.1470016 12.8583906,23.1452862 L12.8583906,23.1452862 Z M12.1430473,23.1473072 C12.1332178,23.1423925 12.1221763,23.1452606 12.1156365,23.1525954 L12.1099173,23.1665331 L12.0757714,23.7811639 C12.0751323,23.7926639 12.0828099,23.8018602 12.0926481,23.8045676 L12.108256,23.8032389 L12.3092106,23.7104931 L12.3186497,23.7024347 L12.3186497,23.7024347 L12.3225043,23.6906389 L12.340401,23.2611114 L12.337245,23.2485176 L12.337245,23.2485176 L12.3277531,23.2396597 L12.1430473,23.1473072 Z" id="MingCute" fill-rule="nonzero"></path>
                <path d="M20.4294,5.86489 L20.5082528,6.56367584 L20.5082528,6.56367584 L20.580075,7.33071233 L20.580075,7.33071233 L20.6160111,7.77940824 L20.6160111,7.77940824 L20.6669924,8.5296714 L20.6669924,8.5296714 L20.6974997,9.07912122 L20.6974997,9.07912122 L20.7354144,9.9734273 L20.7354144,9.9734273 L20.7539284,10.6141804 L20.7539284,10.6141804 L20.7658071,11.2888087 L20.7658071,11.2888087 L20.77,11.9958 L20.77,11.9958 L20.7658034,12.703177 L20.7658034,12.703177 L20.7539147,13.378154 L20.7539147,13.378154 L20.7353854,14.0192163 L20.7353854,14.0192163 L20.711267,14.6248491 L20.711267,14.6248491 L20.6826112,15.1935376 L20.6826112,15.1935376 L20.6334199,15.973986 L20.6334199,15.973986 L20.5980208,16.4436864 L20.5980208,16.4436864 L20.5080736,17.4297968 L20.5080736,17.4297968 L20.4292,18.1282 L20.4292,18.1282 C20.3197,19.0105 19.4029,19.5388 18.5851,19.1929 L18.0942118,18.9801227 L18.0942118,18.9801227 L17.2489694,18.5938129 L17.2489694,18.5938129 L16.6282752,18.2964514 L16.6282752,18.2964514 L16.1706353,18.0704027 L16.1706353,18.0704027 L15.4225713,17.6890367 L15.4225713,17.6890367 L14.8852205,17.4062583 L14.8852205,17.4062583 L14.3188985,17.1003811 L14.3188985,17.1003811 L13.7252701,16.7711725 L13.7252701,16.7711725 L13.106,16.4184 L13.106,16.4184 L12.491071,16.0586027 L12.491071,16.0586027 L11.9093444,15.7092241 L11.9093444,15.7092241 L11.1003892,15.2080948 L11.1003892,15.2080948 L10.369688,14.73916 L10.369688,14.73916 L9.92707973,14.4470158 L9.92707973,14.4470158 L9.52082812,14.1730701 L9.52082812,14.1730701 L8.9809994,13.7996776 L8.9809994,13.7996776 L8.39436386,13.380038 L8.39436386,13.380038 L7.96451,13.0612 L7.96451,13.0612 C7.25542,12.5254 7.25502,11.4662 7.96564,10.9306 L8.29095301,10.6887228 L8.29095301,10.6887228 L8.71338281,10.3829978 L8.71338281,10.3829978 L9.22967559,10.0199227 L9.22967559,10.0199227 L9.8365775,9.605995 L9.8365775,9.605995 L10.5308347,9.1477123 L10.5308347,9.1477123 L11.0405968,8.82075752 L11.0405968,8.82075752 L11.5867732,8.47890243 L11.5867732,8.47890243 L12.1683998,8.12407223 L12.1683998,8.12407223 L12.7845126,7.75819213 L12.7845126,7.75819213 L13.1052,7.57171 C13.313048,7.4517076 13.5172742,7.3354716 13.717562,7.2229832 L14.3062931,6.89674199 L14.3062931,6.89674199 L14.869493,6.59287358 L14.869493,6.59287358 L15.6622647,6.17877319 L15.6622647,6.17877319 L16.3869017,5.81437706 L16.3869017,5.81437706 L16.8289732,5.59887178 L16.8289732,5.59887178 L17.4257999,5.31647006 L17.4257999,5.31647006 L18.2279265,4.95381035 L18.2279265,4.95381035 L18.5832,4.8004 L18.5832,4.8004 C19.4021,4.45291 20.3199,4.98218 20.4294,5.86489 Z M6,5 C6.51284071,5 6.93550786,5.38604429 6.99327234,5.88337975 L7,6 L7,18 C7,18.51285 6.61395571,18.9355092 6.11662025,18.9932725 L6,19 L5,19 C4.48716857,19 4.06449347,18.613973 4.0067278,18.1166239 L4,18 L4,6 C4,5.48716857 4.38604429,5.06449347 4.88337975,5.0067278 L5,5 L6,5 Z" id="形状" fill="#09244B"></path>
            </g>
        </g>
    </g>
</svg>

<svg xmlns="http://www.w3.org/2000/svg" width="24" height="24"><g fill="none" fill-rule="nonzero"><path d="M24 0v24H0V0h24ZM12.593 23.258l-.011.002-.071.035-.02.004-.014-.004-.071-.035c-.01-.004-.019-.001-.024.005l-.004.01-.017.428.005.02.01.013.104.074.015.004.012-.004.104-.074.012-.016.004-.017-.017-.427c-.002-.01-.009-.017-.017-.018Zm.265-.113-.013.002-.185.093-.01.01-.003.011.018.43.005.012.008.007.201.093c.012.004.023 0 .029-.008l.004-.014-.034-.614c-.003-.012-.01-.02-.02-.022Zm-.715.002a.023.023 0 0 0-.027.006l-.006.014-.034.614c0 .012.007.02.017.024l.015-.002.201-.093.01-.008.004-.011.017-.43-.003-.012-.01-.01-.184-.092Z"/><path fill="#09244B" d="m20.43 5.865.078.699.072.767.036.448.051.75.03.55.038.894.019.641.012.675.004.707-.004.707-.012.675-.019.641-.024.606-.028.569-.05.78-.035.47-.09.986-.079.698a1.332 1.332 0 0 1-1.844 1.065l-.49-.213-.846-.386-.62-.298-.458-.226-.748-.381-.538-.283-.566-.306-.594-.329-.619-.353-.615-.36-.582-.349-.809-.5-.73-.47-.443-.292-.406-.274-.54-.373-.587-.42-.43-.319a1.332 1.332 0 0 1 .002-2.13l.325-.242.422-.306.517-.363.607-.414.694-.458.51-.327.546-.342.581-.355.617-.366.32-.186c.208-.12.412-.237.613-.349l.588-.326.563-.304.793-.414.725-.365.442-.215.597-.283.802-.362.355-.154a1.332 1.332 0 0 1 1.846 1.065ZM6 5a1 1 0 0 1 .993.883L7 6v12a1 1 0 0 1-.883.993L6 19H5a1 1 0 0 1-.993-.883L4 18V6a1 1 0 0 1 .883-.993L5 5h1Z"/></g></svg>
